X:1
T:Toss the Feathers
T:Toss the Feathers v1
R:reel
H:Other versions: #263 (Ddor), #110 (Dmix), #652 (Ddor)
Z:id:hn-reel-163
M:C|
K:Edor
EB~B2 dB~B2|EBBA FEFA|BE~E2 B2AB|1 dffe dBAF:|2 dffe dBAd||
Beed e2de|fede fe~e2|febe febe|fede feed|
Beed e2de|fede fa~a2|~b3f ~a3f|effe dBAF||

